X: 14
T: Paddy Fahey's
C: Paddy Fahey
Z: muirn
S: https://thesession.org/tunes/463#setting54171
R: reel
M: 4/4
L: 1/8
K: Dmin
|: D2A,D FEFG | Ad^ce dcde | f2df ed^cA | d2AG ^FDCA, |
D2A,D FEFG | Ad^ce dcde | fedf ed^cA |1 d2AG ^FDD2 :|2 d2AG ^FDFG ||
|: Ad~ed ad=Bd | c=BcG EFGc | Ad~ed ad=Bd | c=Bcd ed^cA |
a2^ga A=BcA | d2AG ^FDCA, | D2A,D FEFG |1 Ad^ce d2d=c :|2 Ad^ce d4 ||

%-------------------- TUNE SEPARATOR --------------------%

